images/stand-out-bg-3.svg

<svg xmlns="http://www.w3.org/2000/svg" width="2334" height="1563" fill="none"><g filter="url(#a)" opacity=".2"><path fill="url(#b)" fill-rule="evenodd" d="M-384.31 1H-1041v1561h4416V1h-656.32l256.42 144.936c22.6 12.772 22.6 33.481 0 46.253l-1767 998.751c-22.6 12.77-59.24 12.77-81.83 0L-640.732 192.189c-22.598-12.772-22.598-33.481 0-46.254L-384.31 1Z" clip-rule="evenodd"/></g><defs><linearGradient id="b" x1="89.978" x2="150.822" y1="887.446" y2="1479.99" gradientUnits="userSpaceOnUse"><stop stop-color="#fff"/><stop offset="1" stop-color="#fff" stop-opacity="0"/></linearGradient><filter id="a" width="4418" height="1563" x="-1042" y="0" color-interpolation-filters="sRGB" filterUnits="userSpaceOnUse"><feFlood flood-opacity="0" result="BackgroundImageFix"/><feBlend in="SourceGraphic" in2="BackgroundImageFix" result="shape"/><feGaussianBlur result="effect1_foregroundBlur_1812_50860" stdDeviation=".5"/></filter></defs></svg>

<svg width="2334" height="1563" viewBox="0 0 2334 1563" fill="none" xmlns="http://www.w3.org/2000/svg">
<g opacity="0.2" filter="url(#filter0_f_1812_50860)">
<path fill-rule="evenodd" clip-rule="evenodd" d="M-384.31 1L-1041 1V1562H3375V1L2718.68 1L2975.1 145.936C2997.7 158.708 2997.7 179.417 2975.1 192.189L1208.1 1190.94C1185.5 1203.71 1148.86 1203.71 1126.27 1190.94L-640.732 192.189C-663.33 179.417 -663.33 158.708 -640.732 145.935L-384.31 1Z" fill="url(#paint0_linear_1812_50860)"/>
</g>
<defs>
<filter id="filter0_f_1812_50860" x="-1042" y="0" width="4418" height="1563" filterUnits="userSpaceOnUse" color-interpolation-filters="sRGB">
<feFlood flood-opacity="0" result="BackgroundImageFix"/>
<feBlend mode="normal" in="SourceGraphic" in2="BackgroundImageFix" result="shape"/>
<feGaussianBlur stdDeviation="0.5" result="effect1_foregroundBlur_1812_50860"/>
</filter>
<linearGradient id="paint0_linear_1812_50860" x1="89.9776" y1="887.446" x2="150.822" y2="1479.99" gradientUnits="userSpaceOnUse">
<stop stop-color="white"/>
<stop offset="1" stop-color="white" stop-opacity="0"/>
</linearGradient>
</defs>
</svg>
